X: 959
T: Halka-i Mecliste
C: Ahmet Avni Konuk
O: Turkey
F: http://compmusic.upf.edu/node/140
N: nikriz--kupe--devrirevanihindi--halka-i_mecliste--ahmet_avni_konuk
N: makam= nikriz
N: form= kupe
N: usul= devrirevanihindi = 14/8
M: 14/8
L: 1/16
K: C _7/8B ^3/4f ^c 
Q: 1/4=102
%%MIDI tuningsystem comma53
d4 d2c2 d2e2 {=f}edd4c2 cBBA G2z2  | \
w:  Hal ka  i *  *  *  *  *  mec  | 
d4 d2c2 d2e2 {=f}edc2 d4 d6z2  | 
w:  lis te  Nik *  *  *  *  *  rîz   | 
g2f2 g2=f2 efe2 ded2 cdcB dcBc B2A2  | \
w:  ey *  le se  *  *  *  *  *  ol   | 
BcB2 A2G4e2 =f2e2 d2c2 d6z2  | 
w:  meh  *  *  *  *  he *  mân    | 
G2d2 d2ed dcd4c2 d2e2 =f2fe dcB2  | \
w:  Sabr_ *  ü  sâ *  *  *  *  mâ  | 
c4 =f2e2 d2c2 B2dc B2cd cBAc B2z2  | 
w:  nım  o lur  *  *  *  ben  | 
AGF2 G2A6 z2BA B2c2 d2dc BAG2  | A2B2 {c}BAB3Adc BAAG GFAG G6z2  | 
w:  den  *  *  gi rî zân   |  nâ *  *  *  *  *  *  gi *  *  *  hân    | 
|


